X: 4
T: Lord Duncans Favorite
%C: Mr. Gray
%R: reel
B: Mr. Gray "24 Country Dances for the Year 1803" p.2 #2
S: http://imslp.org/wiki/24_Country_Dances_for_the_Year_1803_(Various)  2013-12-2
Z: 2013 John Chambers <jc:trillian.mit.edu>
M: 2/4
L: 1/16
K: C
c2c2 |\
d2d2 cdef | g4 f2f2 | e2e2 dcBA |\
GABG | c2c2 | d2d2 e2e2 | ^f2f2 g2g2 | a2^f2 g4 | G4 :|
|: g2g2 |\
e3d ^cdec | A4 f2f2 | d3c BcdB | G4 c2c2 |\
d2d2 e2f2 | g3f {f}e2dc | G2cd e2c2 | c4 :|
% - - - - - - - - - - - - - - - - - - - - - - - - -
%%begintext align
%% Allemand with your partner lead down 2 Cu.
%% up again & cast off :|: 4 hands round with
%% the 3d Cu: the same with the 2d Cu: sett
%% corners & turn :|: lead outsides :|:
%%endtext
